X:19
T:My Friend Jerry
R:reel
C:Paul S. Cranford
O:Cape Breton Island
S:http://www.cranfordpub.com
D:currently unrecorded
B:currently unpublished in book form
Z:psc
H:                                                        copyrights Cranford Publications, SOCAN
L:1/8
Q:333
M:C|
K:Bb
A|B2 FD G2 FD|CccB AFGA|BFGD F2 DB|CcAF B/B/B BA|
B2 FD G2 FD|CccB AFGA|BFdF c2 cd|eFGA B/B/B B||
||c|dBfB gBbg|f2 dB cGGB||dBfB g2 fd|cFGA B/B/B Bc|
dBfB gBbg|f2 dB cGGA|BFdF c2 cd|eFGA B/B/B B|]
